X:671
T:Mr. John Stewart of Grantully
R:Reel
B:The Athole Collection
M:C|
L:1/8
K:A
e|A/A/A cA eAcA|=G/G/G GB de=gB|A/A/A cA eAce|=gegB A/A/A A:|
e|A/A/A ag abae|=gaeg dgB=G|A/A/A ag abae|dB=GB A/A/A AB|
A/A/A ag abae|=gaeg dgB=G|ab=ga egdg|dB=gB A/A/A A||

